svgs/sharp-regular/naira-sign.svg

<svg xmlns="http://www.w3.org/2000/svg" viewBox="0 0 448 512"><!--! Font Awesome Pro 6.6.0 by @fontawesome - https://fontawesome.com License - https://fontawesome.com/license (Commercial License) Copyright 2024 Fonticons, Inc. --><path d="M88 32L64 32l0 24 0 200-40 0L0 256l0 48 24 0 40 0 0 152 0 24 48 0 0-24 0-152 114.7 0L334.6 469.1l7.1 10.9 13 0 5.3 0 24 0 0-24 0-152 40 0 24 0 0-48-24 0-40 0 0-200 0-24-48 0 0 24 0 200-83.3 0L113.4 42.9 106.3 32l-13 0L88 32zM284 304l52 0 0 79.6L284 304zm-88.7-48L112 256l0-127.5L195.3 256z"/></svg>

<svg xmlns="http://www.w3.org/2000/svg" viewBox="0 0 448 512"><!--! Font Awesome Pro 6.4.0 by @fontawesome - https://fontawesome.com License - https://fontawesome.com/license (Commercial License) Copyright 2023 Fonticons, Inc. --><path d="M88 32H64V56 256H24 0v48H24 64V456v24h48V456 304H226.7L334.6 469.1l7.1 10.9h13H360h24V456 304h40 24V256H424 384V56 32H336V56 256H252.7L113.4 42.9 106.3 32h-13H88zM284 304h52v79.5L284 304zm-88.7-48H112V128.5L195.3 256z"/></svg>
